apps/scalable/gv_icon.svg

<svg xmlns="http://www.w3.org/2000/svg" style="isolation:isolate" width="256" height="256"><defs><filter id="a" width="270.648" height="254.338" x="-7.32" y="2.95" filterUnits="userSpaceOnUse"><feGaussianBlur xmlns="http://www.w3.org/2000/svg" in="SourceGraphic" stdDeviation="4.294"/><feOffset xmlns="http://www.w3.org/2000/svg" dy="4" result="pf_100_offsetBlur"/><feFlood xmlns="http://www.w3.org/2000/svg" flood-opacity=".4"/><feComposite xmlns="http://www.w3.org/2000/svg" in2="pf_100_offsetBlur" operator="in" result="pf_100_dropShadow"/><feBlend xmlns="http://www.w3.org/2000/svg" in="SourceGraphic" in2="pf_100_dropShadow"/></filter></defs><path fill="#F7F7F7" d="M165.685 11.947c74.055 0 84.639 10.557 84.639 84.544v59.251c0 73.986-10.584 84.543-84.639 84.543h-75.37c-74.055 0-84.639-10.557-84.639-84.543V96.491c0-73.987 10.584-84.544 84.639-84.544h75.37z" filter="url(#a)"/><path fill="#37A6E6" d="M165.685 11.947c61.912 0 79.462 7.379 83.552 53.032-5.879-.909-249.958-.548-242.514.453 4.015-46.057 21.475-53.485 83.592-53.485h75.37z"/><path fill="#E3DFD5" fill-opacity=".996" d="M114.014 94.625v4.078h97.86v-4.078h-97.86zm0 16.31v4.077h97.86v-4.077h-97.86zm0 16.234v4.078h97.86v-4.078h-97.86zm0 16.31v4.078h97.86v-4.078h-97.86zM48.775 157.671v4.077h97.859v-4.077H48.775zm0 16.309v4.078l93.067-.155-.232-4.154-92.835.231zm0 16.235v4.077l92.835-.077.155-4.387-92.99.387zm0 16.31v4.077h97.859v-4.077H48.775z"/><radialGradient id="b" cx=".5" cy=".5" r="12.672" fx=".502" fy="-2.384" gradientTransform="matrix(0 46.294 -60 0 152.833 156.019)" gradientUnits="userSpaceOnUse"><stop offset="0%" stop-color="#90dbec"/><stop offset="26.238%" stop-color="#55c1ec"/><stop offset="70.495%" stop-color="#3689e6"/><stop offset="100%" stop-color="#2b63a0"/></radialGradient><path fill="url(#b)" d="M165.58 156.02c-3.534.03-7.984.279-12.747 1.09v45.203h10.735v-16.354s21.151 1.963 21.553-13.502c0 0 2.79-16.618-19.541-16.437zm1.091 8.051c6.513.023 8.217 2.334 8.386 6.625 0 8.998-11.489 6.793-11.489 6.793v-13.25c1.137-.087 2.172-.172 3.103-.168zm33.487 3.941c-2.607.118-5.177.724-7.464 2.013-4.237 2.498-4.766 8.595-2.432 12.58 2.917 4.305 8.527 4.924 12.496 7.883 2.015 1.338.977 4.731-1.342 4.948-4.273.699-8.57-.846-12.412-2.6v6.122c-.533 1.814 1.695 1.859 2.935 2.348 4.615 1.12 9.612 1.288 14.173-.167 4.029-1.186 6.927-5.202 6.71-9.393-.002-1.122-.215-2.206-.587-3.27-1.588-4.401-6.516-5.836-10.316-7.716-2.414-.618-5.969-3.638-2.767-5.703 3.598-1.129 7.317.554 10.567 2.013l2.348-5.619c.785-1.766-3.023-1.74-4.193-2.516-2.468-.695-5.109-1.04-7.716-.922v-.001z"/><path fill="none" stroke="#396" stroke-linecap="round" stroke-linejoin="round" stroke-width="1.614" d="M27.438 229.39c4.333 0 7.29 1.717 9.016-2.217 1.645-6.24.776-26.869 2.943-26.869 2.479 0 .556 21.533 3.823 26.857.961 1.007 2.224 1.481 3.904 1.165 1.749-.339 3.267-2.453 4.066-5.89 4.02-17.385 1.587-66.206 4.043-66.206 2.943 0 .811 64.929 5.781 66.964 2.016.588 2.248-.995 4.877-.554 3.036 2.283 5.133.949 9.014 2.385 5.514 2.035 4.68-23.501 7.622-23.501 2.943 0 1.761 30.306 19.417 28.723 2.653-.282 5.618-5.55 6.001-14.265 1.552-35.81 2.062-146.373 4.471-146.373 2.503 0 2.792 106.098 5.225 144.519.429 6.907 2.167 11.564 3.719 13.113 10.195 10.263 7.623-30.555 12.037-30.555 1.471 0 8.654 19.952 10.125 19.952s2.409-133.657 3.881-133.657c1.471 0 3.788 119.64 5.259 119.64 1.472 0 2.456-5.652 3.928-5.652 1.471 0 2.039 29.718 6.452 29.718 2.943 0 3.325-5.347 4.797-5.347.683 0 3.023 4.397 6.174 4.047 1.935-.215 6.21 2.679 6.986 2.679 1.471 0 5.051-2.182 6.522-2.182 1.472 0 4.055 3.651 5.526 3.651 1.472 0 4.113-16.854 5.584-16.854 1.877 0 1.263 14.707 6.233 17.001 1.784.825 9.741-.544 24.025.846" vector-effect="non-scaling-stroke"/><g opacity=".4"><linearGradient id="c" x1=".517" x2=".517" y2="1"><stop offset="0%" stop-color="#fff"/><stop offset="12.5%" stop-opacity=".098" stop-color="#fff"/><stop offset="92.5%" stop-opacity=".098"/><stop offset="100%" stop-opacity=".498"/></linearGradient><path fill="none" stroke="url(#c)" stroke-linecap="round" stroke-linejoin="round" stroke-width="4.077" d="M165.685 11.947c74.055 0 84.639 10.557 84.639 84.544v59.251c0 73.986-10.584 84.543-84.639 84.543h-75.37c-74.055 0-84.639-10.557-84.639-84.543V96.491c0-73.987 10.584-84.544 84.639-84.544h75.37z" vector-effect="non-scaling-stroke"/></g><path fill="#37A6E6" d="M26.045 90h67.91a5.715 5.715 0 0 1 5.712 5.712v38.243a5.715 5.715 0 0 1-5.712 5.712h-67.91a5.715 5.715 0 0 1-5.712-5.712V95.712A5.715 5.715 0 0 1 26.045 90z"/><path fill="#F7F7F7" fill-rule="evenodd" d="M34.571 126.34h-4.438v-23.013h9.863q2.104 0 3.665.624 1.562.625 2.45 1.677.887 1.052 1.315 2.301.427 1.25.427 2.663 0 2.861-1.989 5.063-1.989 2.203-5.868 2.203h-5.425v8.482zm0-12.69h5.622q1.545 0 2.301-.904.756-.904.756-2.154 0-1.216-.723-2.137-.723-.92-2.334-.92h-5.622v6.115zm16.57 12.69v-23.013H58.9q2.893 0 5.112.97 2.219.969 3.501 2.646t1.907 3.666q.625 1.989.625 4.224 0 1.644-.346 3.222-.345 1.578-1.2 3.107-.854 1.529-2.104 2.663-1.249 1.134-3.222 1.825-1.972.69-4.405.69h-7.627zm4.438-4.208h3.715q3.123 0 4.636-2.186 1.512-2.187 1.512-5.113 0-2.991-1.48-5.145-1.479-2.153-4.306-2.153h-4.077v14.597zm23.342 4.208h-4.438v-23.013h15.419v4.208H78.921v4.833h6.97v4.208h-6.97v9.764z"/></svg>

<svg xmlns="http://www.w3.org/2000/svg" style="isolation:isolate" width="256" height="256" viewBox="0 0 256 256">
 <defs>
  <filter id="pOZ5cbIauyeU5e9gLnKup9FBIofcMfaY" width="270.648" height="254.338" x="-7.32" y="2.95" filterUnits="userSpaceOnUse">
   <feGaussianBlur xmlns="http://www.w3.org/2000/svg" in="SourceGraphic" stdDeviation="4.294"/>
   <feOffset xmlns="http://www.w3.org/2000/svg" dx="0" dy="4" result="pf_100_offsetBlur"/>
   <feFlood xmlns="http://www.w3.org/2000/svg" flood-opacity=".4"/>
   <feComposite xmlns="http://www.w3.org/2000/svg" in2="pf_100_offsetBlur" operator="in" result="pf_100_dropShadow"/>
   <feBlend xmlns="http://www.w3.org/2000/svg" in="SourceGraphic" in2="pf_100_dropShadow" mode="normal"/>
  </filter>
 </defs>
 <g filter="url(#pOZ5cbIauyeU5e9gLnKup9FBIofcMfaY)">
  <path fill="#F7F7F7" d="M 165.685 11.947 C 239.74 11.947 250.324 22.504 250.324 96.491 L 250.324 155.742 C 250.324 229.728 239.74 240.285 165.685 240.285 L 90.315 240.285 C 16.26 240.285 5.676 229.728 5.676 155.742 L 5.676 96.491 C 5.676 22.504 16.26 11.947 90.315 11.947 L 165.685 11.947 Z"/>
 </g>
 <path fill="#37A6E6" d="M 165.685 11.947 C 227.597 11.947 245.147 19.326 249.237 64.979 C 243.358 64.07 -0.721 64.431 6.723 65.432 C 10.738 19.375 28.198 11.947 90.315 11.947 L 165.685 11.947 Z"/>
 <g>
  <path fill="#E3DFD5" fill-opacity=".996" d="M 114.014 94.625 L 114.014 98.703 L 211.874 98.703 L 211.874 94.625 L 114.014 94.625 Z M 114.014 110.935 L 114.014 115.012 L 211.874 115.012 L 211.874 110.935 L 114.014 110.935 Z M 114.014 127.169 L 114.014 131.247 L 211.874 131.247 L 211.874 127.169 L 114.014 127.169 Z M 114.014 143.479 L 114.014 147.557 L 211.874 147.557 L 211.874 143.479 L 114.014 143.479 Z"/>
  <path fill="#E3DFD5" fill-opacity=".996" d="M 48.775 157.671 L 48.775 161.748 L 146.634 161.748 L 146.634 157.671 L 48.775 157.671 Z M 48.775 173.98 L 48.775 178.058 L 141.842 177.903 L 141.61 173.749 L 48.775 173.98 Z M 48.775 190.215 L 48.775 194.292 L 141.61 194.215 L 141.765 189.828 L 48.775 190.215 Z M 48.775 206.525 L 48.775 210.602 L 146.634 210.602 L 146.634 206.525 L 48.775 206.525 Z"/>
  <radialGradient id="_rgradient_20" cx=".5" cy=".5" r="12.672" fx=".502" fy="-2.384" gradientTransform="matrix(0,46.294,-60,0,152.833,156.019)" gradientUnits="userSpaceOnUse">
   <stop offset="0%" style="stop-color:rgb(144,219,236)"/>
   <stop offset="26.238%" style="stop-color:rgb(85,193,236)"/>
   <stop offset="70.495%" style="stop-color:rgb(54,137,230)"/>
   <stop offset="100%" style="stop-color:rgb(43,99,160)"/>
  </radialGradient>
  <path fill="url(#_rgradient_20)" d="M 165.58 156.02 C 162.046 156.05 157.596 156.299 152.833 157.11 L 152.833 202.313 L 163.568 202.313 L 163.568 185.959 C 163.568 185.959 184.719 187.922 185.121 172.457 C 185.121 172.457 187.911 155.839 165.58 156.02 Z M 166.671 164.071 C 173.184 164.094 174.888 166.405 175.057 170.696 C 175.057 179.694 163.568 177.489 163.568 177.489 L 163.568 164.239 C 164.705 164.152 165.74 164.067 166.671 164.071 L 166.671 164.071 Z M 200.158 168.012 C 197.551 168.13 194.981 168.736 192.694 170.025 C 188.457 172.523 187.928 178.62 190.262 182.605 C 193.179 186.91 198.789 187.529 202.758 190.488 C 204.773 191.826 203.735 195.219 201.416 195.436 C 197.143 196.135 192.846 194.59 189.004 192.836 L 189.004 198.958 C 188.471 200.772 190.699 200.817 191.939 201.306 C 196.554 202.426 201.551 202.594 206.112 201.139 C 210.141 199.953 213.039 195.937 212.822 191.746 C 212.82 190.624 212.607 189.54 212.235 188.476 C 210.647 184.075 205.719 182.64 201.919 180.76 C 199.505 180.142 195.95 177.122 199.152 175.057 C 202.75 173.928 206.469 175.611 209.719 177.07 L 212.067 171.451 C 212.852 169.685 209.044 169.711 207.874 168.935 C 205.406 168.24 202.765 167.895 200.158 168.013 L 200.158 168.012 Z"/>
  <path fill="none" stroke="#339966" stroke-linecap="round" stroke-linejoin="round" stroke-width="1.614" d="M 27.438 229.39 C 31.771 229.39 34.728 231.107 36.454 227.173 C 38.099 220.933 37.23 200.304 39.397 200.304 C 41.876 200.304 39.953 221.837 43.22 227.161 C 44.181 228.168 45.444 228.642 47.124 228.326 C 48.873 227.987 50.391 225.873 51.19 222.436 C 55.21 205.051 52.777 156.23 55.233 156.23 C 58.176 156.23 56.044 221.159 61.014 223.194 C 63.03 223.782 63.262 222.199 65.891 222.64 C 68.927 224.923 71.024 223.589 74.905 225.025 C 80.419 227.06 79.585 201.524 82.527 201.524 C 85.47 201.524 84.288 231.83 101.944 230.247 C 104.597 229.965 107.562 224.697 107.945 215.982 C 109.497 180.172 110.007 69.609 112.416 69.609 C 114.919 69.609 115.208 175.707 117.641 214.128 C 118.07 221.035 119.808 225.692 121.36 227.241 C 131.555 237.504 128.983 196.686 133.397 196.686 C 134.868 196.686 142.051 216.638 143.522 216.638 C 144.993 216.638 145.931 82.981 147.403 82.981 C 148.874 82.981 151.191 202.621 152.662 202.621 C 154.134 202.621 155.118 196.969 156.59 196.969 C 158.061 196.969 158.629 226.687 163.042 226.687 C 165.985 226.687 166.367 221.34 167.839 221.34 C 168.522 221.34 170.862 225.737 174.013 225.387 C 175.948 225.172 180.223 228.066 180.999 228.066 C 182.47 228.066 186.05 225.884 187.521 225.884 C 188.993 225.884 191.576 229.535 193.047 229.535 C 194.519 229.535 197.16 212.681 198.631 212.681 C 200.508 212.681 199.894 227.388 204.864 229.682 C 206.648 230.507 214.605 229.138 228.889 230.528" vector-effect="non-scaling-stroke"/>
 </g>
 <g opacity=".4">
  <linearGradient id="_lgradient_211" x1=".517" x2=".517" y1="0" y2="1">
   <stop offset="0%" style="stop-color:rgb(255,255,255)"/>
   <stop offset="12.5%" stop-opacity=".098" style="stop-color:rgb(255,255,255)"/>
   <stop offset="92.5%" stop-opacity=".098" style="stop-color:rgb(0,0,0)"/>
   <stop offset="100%" stop-opacity=".498" style="stop-color:rgb(0,0,0)"/>
  </linearGradient>
  <path fill="none" stroke="url(#_lgradient_211)" stroke-linecap="round" stroke-linejoin="round" stroke-width="4.077" d="M 165.685 11.947 C 239.74 11.947 250.324 22.504 250.324 96.491 L 250.324 155.742 C 250.324 229.728 239.74 240.285 165.685 240.285 L 90.315 240.285 C 16.26 240.285 5.676 229.728 5.676 155.742 L 5.676 96.491 C 5.676 22.504 16.26 11.947 90.315 11.947 L 165.685 11.947 Z" vector-effect="non-scaling-stroke"/>
 </g>
 <path fill="#37A6E6" d="M 26.045 90 L 93.955 90 C 97.107 90 99.667 92.559 99.667 95.712 L 99.667 133.955 C 99.667 137.107 97.107 139.667 93.955 139.667 L 26.045 139.667 C 22.893 139.667 20.333 137.107 20.333 133.955 L 20.333 95.712 C 20.333 92.559 22.893 90 26.045 90 Z"/>
 <path fill="#F7F7F7" fill-rule="evenodd" d="M 34.571 126.34 L 30.133 126.34 L 30.133 103.327 L 39.996 103.327 L 39.996 103.327 Q 42.1 103.327 43.661 103.951 L 43.661 103.951 L 43.661 103.951 Q 45.223 104.576 46.111 105.628 L 46.111 105.628 L 46.111 105.628 Q 46.998 106.68 47.426 107.929 L 47.426 107.929 L 47.426 107.929 Q 47.853 109.179 47.853 110.592 L 47.853 110.592 L 47.853 110.592 Q 47.853 113.453 45.864 115.655 L 45.864 115.655 L 45.864 115.655 Q 43.875 117.858 39.996 117.858 L 39.996 117.858 L 34.571 117.858 L 34.571 126.34 Z M 34.571 113.65 L 40.193 113.65 L 40.193 113.65 Q 41.738 113.65 42.494 112.746 L 42.494 112.746 L 42.494 112.746 Q 43.25 111.842 43.25 110.592 L 43.25 110.592 L 43.25 110.592 Q 43.25 109.376 42.527 108.455 L 42.527 108.455 L 42.527 108.455 Q 41.804 107.535 40.193 107.535 L 40.193 107.535 L 34.571 107.535 L 34.571 113.65 Z M 51.141 126.34 L 51.141 103.327 L 58.9 103.327 L 58.9 103.327 Q 61.793 103.327 64.012 104.297 L 64.012 104.297 L 64.012 104.297 Q 66.231 105.266 67.513 106.943 L 67.513 106.943 L 67.513 106.943 Q 68.795 108.62 69.42 110.609 L 69.42 110.609 L 69.42 110.609 Q 70.045 112.598 70.045 114.833 L 70.045 114.833 L 70.045 114.833 Q 70.045 116.477 69.699 118.055 L 69.699 118.055 L 69.699 118.055 Q 69.354 119.633 68.499 121.162 L 68.499 121.162 L 68.499 121.162 Q 67.645 122.691 66.395 123.825 L 66.395 123.825 L 66.395 123.825 Q 65.146 124.959 63.173 125.65 L 63.173 125.65 L 63.173 125.65 Q 61.201 126.34 58.768 126.34 L 58.768 126.34 L 51.141 126.34 Z M 55.579 122.132 L 59.294 122.132 L 59.294 122.132 Q 62.417 122.132 63.93 119.946 L 63.93 119.946 L 63.93 119.946 Q 65.442 117.759 65.442 114.833 L 65.442 114.833 L 65.442 114.833 Q 65.442 111.842 63.962 109.688 L 63.962 109.688 L 63.962 109.688 Q 62.483 107.535 59.656 107.535 L 59.656 107.535 L 55.579 107.535 L 55.579 122.132 Z M 78.921 126.34 L 74.483 126.34 L 74.483 103.327 L 89.902 103.327 L 89.902 107.535 L 78.921 107.535 L 78.921 112.368 L 85.891 112.368 L 85.891 116.576 L 78.921 116.576 L 78.921 126.34 Z"/>
</svg>
